X:1
T:Berkshire, LM
T:Berkshire, LM
T:Samuel Sebastian Wesley, 1872
T:Public Domain Courtesy of the Cyber Hymnal™
C:Samuel Sebastian Wesley, 1872
Z:Public Domain
Z:Courtesy of the Cyber Hymnal™
%%score ( 1 2 ) ( 3 4 )
L:1/8
Q:1/4=109
M:2/4
K:Bb
V:1 treble 
V:2 treble 
V:3 bass 
V:4 bass 
V:1
 F2 | [FB]2 [Dd]2 | [EG]2 [Ee]2 | [Fd]2 (cB) | [Fc]2 F2 | [FB]2 [B,d]2 | [Cc]2 (FG) | %7
 [FA]2 [=EG]2 | !fermata!F2 F2 | [Gc]2 [Gd]2 | [Ge]2 [Fc]2 | (dB) (AB) | [Fc]2 F2 | [FB]2 [Fd]2 | %14
 G2 [Ee]2 | [Fd]2 [Fc]2 | [DB]2 |] %17
V:2
 F2 | x4 | x4 | x2 =E2 | x2 F2 | x4 | x2 F2 | x4 | F2 F2 | x4 | x4 | F2 =E2 | x2 F2 | x4 | G2 x2 | %15
 x4 | x2 |] %17
V:3
 [F,A,]2 | [D,F,]2 [B,,B,]2 | [E,B,]2 [C,A,]2 | [B,,B,]2 [G,,C]2 | [F,,A,]2 [F,A,]2 | %5
 [D,B,]2 [B,,F,]2 | [A,,F,]2 (A,B,) | [C,C]2 (CB,) | !fermata![F,A,]2 [F,A,]2 | [E,G,]2 [G,=B,]2 | %10
 [C,C]2 [F,A,]2 | B,2 (CB,) | [F,A,]2 [F,A,]2 | [D,B,]2 [B,,B,]2 | [E,B,]2 [C,C]2 | %15
 [F,B,]2 [F,A,]2 | [B,,B,]2 |] %17
V:4
 x2 | x4 | x4 | x4 | x4 | x4 | x2 D,2 | x2 C,2 | x4 | x4 | x4 | B,2 G,2 | x4 | x4 | x4 | x4 | x2 |] %17

